!!!COM: Bach, Johann Sebastian
!!!CDT: 1685///-1750///
!!!CNT@EN: German
!!!OTL: Gigue from Cello Suite No. 4 in E-flat Major, BWV 1010
!!!OPR: Cello Suite No. 4 in E-flat Major, BWV 1010
!!!OMD: Gigue
!!!OMV: 7
!!!ODT: 1723///
!!!SCT: BWV 1010
!!!SCA: Thematisch-systematisches Verzeichnis der musikalischen Werke Johann Sebastian Bach: Bach-Werke-Verzeichnis (Schmieder)
**kern
*cello
*>[A,A,B,B]
*>norep[A,B]
*>A
*clefF4
*k[b-e-a-]
*M12/8
*MM144
8E-\
=1
(8E-\L
8D\
8E-\J)
(8BB-/L
8C/
8D/J)
8E-\L
8D\
8E-\J
(8G\L
8F\
8G\J)
=2
(8E-\L
8D\
8E-\J)
(8BB-/L
8C/
8D/J)
[4.EE-/
4EE-/]
8G\
=3
(8F\L
8E-\
8F\J)
(8B-\L
8G\
8A-\J)
(8G\L
8F\
8G\J)
(8E-\L
8F\
8G\J)
=4
(8F\L
8E-\
8F\J)
(8B-\L
8G\
8A-\J)
(8G\L
8F\
8G\J)
(8E-\L
8G\
8F\J)
=5
(8E-\L
8D\
8E-\J)
(8c\L
8An\
8B-\J)
(8A\L
8G\
8A\J)
(8F\L
8A\
8F\J)
=6
(8E-\L
8D\
8E-\J)
(8c\L
8An\
8B-\J)
(8A\L
8G\
8A\J)
(8F\L
8A\
8E-\J)
=7
(8D/L
8C/
8D/J)
(8d\L
8An\
8B-\J)
(8E-\L
8D\
8E-\J)
(8d\L
8A\
8B-\J)
=8
(8F\L
8E-\
8F\J)
(8d\L
8An\
8B-\J)
(8G\L
8F\
8G\J)
(8d\L
8A\
8B-\J)
=9
(8E-\L
8D\
8E-\J)
(8C/L
8E-/
8BB-/J)
(8AAn/L
8E-/
8GG/J)
(8AA/L
8E-/
8FF/J)
=10
(8BB-\L
8D\
8F\J
8B-\L)
(8D\
8F\J)
[4.BB-/
4BB-/]
=:|!|:
*>B
8B-\
=11
(8B-\L
8An\
8B-\J)
(8F\L
8G\
8A\J)
(8B-\L
8A\
8B-\J)
(8d\L
8c\
8d\J)
=12
(8B-\L
8An\
8B-\J)
(8F\L
8G\
8A\J)
[4.BB-/
4BB-/]
8d\
=13
(8d\L
8c\
8d\J)
(8A-\L
8G\
8A-\J)
(8F\L
8E-\
8F\J)
(8BBn\L
8F\
8d\J)
=14
(8d\L
8c\
8d\J)
(8A-\L
8G\
8A-\J)
(8F\L
8E-\
(8F\J)
8BBn\L
8D\
8F\J)
=15
(8E-\L
8D\
8E-\J)
(8C/L
8E-/
8BB-/J)
(8AA-/L
8C/)
8F/J
(8A-\L
8c\
8E-\J)
=16
(8D/L
8C/
8D/J)
(8BB-/L
8D/
8AA-/J)
(8GG/L
8BB-/
8E-/J)
(8G\L
8B-\
8D\J)
=17
(8C/L
8BB-/
8C/J)
(8AA-/L
8C/
8GG/J)
(8FF/L
8AA-/
8D/J)
(8F\L
8A-\
8C\J)
=18
(8BBn\L
8D\
8G\J)
(8Bn\L
8d\
8F\J)
(8E-\L
8G\
8c\J)
(8G\L
8c\
8B\J)
=19
(8c\L
8Bn\
8c\J)
(8G\L
8An\
8B\J)
(8c\L
8B\
8c\J)
(8e-\L
8d\
8e-\J)
=20
(8c\L
8Bn\
8c\J)
(8E-\L
8F\
8G\J)
(8C\L
8E-\
8F#\J)
(8An\L
8c\
8A\J)
=21
(8F#\L
8An\
8c\J)
(8e-\L
8d\
8c\J)
(8B-\L
8A\
8G\J)
(8D\L
8G\
8F#\J)
=22
(8G\L
8F#\
8G\J)
(8B-\L
8F#\
8G\J)
(8C/L
8BB-/
8C/J)
(8B-\L
8F#\
8G\J)
=23
(8D/L
8C/
8D/J)
(8B-\L
8F#\
8G\J)
(8E-\L
8D\
8E-\J)
(8B-\L
8F#\
8G\J)
=24
(8An\L
8c\
8G\J)
(8F#\L
8c\
8En\J)
(8D\L
8c\
8E\J)
(8F#\L
8c\
8G\J)
=25
(8An\L
8c\
8G\J)
(8F#\L
8c\
8En\J)
(8D\L
8c\
8E\J)
(8F#\L
8c\
8D\J)
=26
(8B-\L
8An\
8G\J)
(8D\L
8G\
8F#\J)
(8G\L
8D\
8BB-\J)
4GG/
8E-\
=27
(8E-\L
8D\
8E-\J)
(8BB-/L
8C/
8D/J)
(8E-\L
8D\
8E-\J)
(8G\L
8Fn\
8G\J)
=28
(8E-\L
8D\
8E-\J)
(8BB-/L
8C/
8D/J)
[4.EE-/
4EE-/]
8G\
=29
(8F\L
8E-\
8F\J)
(8B-\L
8G\
8A-\J)
(8G\L
8F\
8G\J)
(8E-\L
8F\
8G\J)
=30
(8F\L
8E-\
8F\J)
(8B-\L
8G\
8A-\J)
(8G\L
8F\
8G\J)
(8E-\L
8G\
8A-\J)
=31
(8B-\L
8A-\
8B-\J)
(8e-\L
8c\
8d-\J)
(8c\L
8B-\
8c\J)
(8A-\L
8B-\
8c\J)
=32
(8B-\L
8A-\
8B-\J)
(8e-\L
8c\
8d-\J)
(8c\L
8B-\
8c\J)
(8A-\L
8B-\
8c\J)
=33
(8G-\L
8F\
8G-\J)
(8E-\L
8D\
8E-\J)
(8C/L
8BB-/
8C/J)
(8AAn/L
8C/
8E-/J)
=34
(8D-/L
8C/
8D-/J
(8BB-/L)
8D-/
8AA-/J)
(8GG/L
8BB-/
8E-/J)
(8Gn\L
8B-\
8E-\J)
=35
(8C/L
8BB-/
8C/J)
(8AA-/L
8C/
8GG/J)
(8FF/L
8AA-/
8D-/J)
(8F\L
8A-\
8C\J)
=36
(8BB-/L
8AA-/
8BB-/J)
(8GG/L
8BB-/
8FF/J)
(8EEn/L
8GG/
8C/J)
(8En\L
8G\
8BB-\J)
=37
(8AA-/L
8GG/
8AA-/J)
(8FF/L
8AA-/
8EE-/J)
(8DD/L
8FF/
8BB-/J)
(8D/L
8F/
8AA-/J)
=38
(8GG/L
8FF/
8GG/J)
(8G\L
8D\
8E-\J)
(8AA-/L
8GG/
8AA-/J)
(8G\L
8D\
8E-\J)
=39
(8BB-/L
8AA-/
8BB-/J)
(8G\L
8D\
(8E-\J)
8C/L
8BB-/
8C/J)
(8G\L
8D\
8E-\J)
=40
(8A-\L
8G\
8A-\J)
(8F\L
8A-\
8E-\J)
(8D\L
8A-\
8C\J)
(8D\L
8A-\
8BB-\J)
=41
(8E-\L
8G\
8B-\J
8e-/L)
(8GG/
8BB-/J)
[4.EE-/
4EE-/]
==:|!
*-
!!!ENC: Craig Stuart Sapp
!!!END: 2004/12/29/
